X: 34150
T: Reel Eugène
R: reel
M: 4/4
K: Bminor
F2|:"Bm"B2Bc dcB2|"Em"e2ef gfeg|"F#7"f2fg fede|fbbf b2b2|
"Bm"B2Bc dcB2|"Em"e2ef gfeg|"F#7"f2fg fedc|1 "Bm"B4 "F#7"F4:|2 "G"B4 "A7"A4||
|:"D"f2fe d2dB|A2df b2f2|"Em"a2ag e2 ec|"A7"Aceg f2 d2|
"D"f2fe d2dB|A2df b2f2|"Em"a2ag eceg|1 "A7"fdec "D"d2A2:|2 "A7"fdec "D"d2F2||

